X:96
T:Si\'uil a R\'un
R:song
Z:id:hn-song-96
M:3/4
L:1/8
Q:1/4=90
K:Edor
(GA) | (B3 A)(GB) | A4 (DE) | E2 (E2 D2) | E4
(EF) | G4 E2 | d4 B2 | (A3 G) (EB,) | D4
(B,D) | E4 (EF) | G4 (AG) | E4 (ED) | E4
GA | (B3 A)(GB) | (A3 G)(ED) | E6 ||
(B3 A G2) | (A3 GED) | E2 (E2 D2) | E6 |
G4 E2 | d d3 BB | A4 G2 | F6 |
E4 F2 | G G3 AG | E (E3 D2) | E4
GA | (B3 A)(GB) | (A3 G)(ED) | E6 ||
W:I wish I was on yonder hill
W:'Tis there I'd sit and cry my fill
W:And every tear would turn a mill 	 
W:Is go dt\'e t\'u mo mh\'uirn\'in sl\'an
W:  	 
W:Chorus:
W:Si\'uil, si\'uil, si\'uil a r\'un
W:Si\'uil go sochair agus si\'uil go ci\'uin
W:Si\'uil go doras agus \'ealaigh liom
W:Is go dt\'e t\'u mo mh\'uirn\'in sl\'an
W:  	 
W:Chorus
W:  	
W:I'll sell my rock, I'll sell my reel
W:I'll sell my only spinning wheel
W:To buy my love a sword of steel 	 
W:Is go dt\'e t\'u mo mh\'uirn\'in sl\'an
W:  	 
W:Chorus
W:  	 
W:I'll dye my petticoats, I'll dye them red
W:And around the world I'll beg for bread
W:Until my parents they do wish me dead 	 
W:Is go dt\'e t\'u mo mh\'uirn\'in sl\'an
W:  	 
W:Chorus
W:  	 
W:I wish, I wish, I wish in vain
W:I wish I had my heart again
W:And vainly think I'd not complain 	 
W:Is go dt\'e t\'u mo mh\'uirn\'in sl\'an
W:  	 
W:Chorus
W:  	 
W:But now my love has gone to France
W:To seek his fortune to advance
W:If he returns, 'tis but a chance 	 
W:Is go dt\'e t\'u mo mh\'uirn\'in sl\'an
W:  	 
W:Chorus
W:
W:Translation of chorus:
W:Go, go, go, my love
W:Go quietly and go softly
W:Go to the door and flee with me
W:And may you go safely, my dear

